img/sponsors/logo-3.svg

<?xml version="1.0" encoding="UTF-8"?>
<svg width="143px" height="18px" viewBox="0 0 143 18" version="1.1" xmlns="http://www.w3.org/2000/svg" xmlns:xlink="http://www.w3.org/1999/xlink">
    <!-- Generator: Sketch 41 (35326) - http://www.bohemiancoding.com/sketch -->
    <title>logo-inserver</title>
    <desc>Created with Sketch.</desc>
    <defs></defs>
    <g id="Page-1" stroke="none" stroke-width="1" fill="none" fill-rule="evenodd">
        <g id="logo-inserver" fill="#FFFFFF">
            <path d="M5.77315973e-15,0.225 L5.77315973e-15,17.75 L5.2,17.75 L5.2,0.225 L5.77315973e-15,0.225 Z M9.85000005,0.225 L9.85000005,17.75 L14.625,17.75 L14.625,8 L22.05,17.75 L26.475,17.75 L26.475,0.225 L21.725,0.225 L21.725,10.025 L14.3,0.225 L9.85000005,0.225 Z M43.7250001,6.025 L45.6500001,2.025 C43.7500001,0.8 41.0000001,0 38.3250001,0 C33.9500001,0 31.0750001,2.15 31.0750001,5.525 C31.0750001,11.7 40.2250001,10.025 40.2250001,12.675 C40.2250001,13.475 39.5250001,13.85 38.4250001,13.85 C36.6250001,13.85 33.7000001,12.7 31.9000001,11.175 L29.9500001,15.125 C32.1500001,16.85 35.4000001,17.9 38.3750001,17.9 C42.3000001,17.9 45.6000001,16.125 45.6000001,12.4 C45.6000001,6.075 36.4500001,7.6 36.4500001,5.025 C36.4500001,4.375 37.0250001,4.075 37.9000001,4.075 C39.3750001,4.075 41.9250001,5 43.7250001,6.025 Z M49.2000001,0.225 L49.2000001,17.75 L63.7750001,17.75 L63.7750001,13.75 L54.4000001,13.75 L54.4000001,10.975 L62.6750001,10.975 L62.6750001,6.975 L54.4000001,6.975 L54.4000001,4.225 L63.5250001,4.225 L63.5250001,0.225 L49.2000001,0.225 Z M84.1500002,17.75 L80.6000002,12.025 C82.5000002,10.95 83.5500002,9.05 83.5500002,6.45 C83.5500002,2.475 80.8500002,0.225 76.1500002,0.225 L67.9750002,0.225 L67.9750002,17.75 L73.1750002,17.75 L73.1750002,13.025 L75.9250002,13.025 L78.2500002,17.75 L84.1500002,17.75 Z M73.1750002,4.225 L76.1500002,4.225 C77.7000002,4.225 78.6000002,5.075 78.6000002,6.6 C78.6000002,8.175 77.7000002,9.025 76.1500002,9.025 L73.1750002,9.025 L73.1750002,4.225 Z M86.1000002,0.225 L92.8000002,17.75 L98.2000002,17.75 L104.975,0.225 L99.6500002,0.225 L95.6500002,12.35 L91.6500002,0.225 L86.1000002,0.225 Z M108.05,0.225 L108.05,17.75 L122.625,17.75 L122.625,13.75 L113.25,13.75 L113.25,10.975 L121.525,10.975 L121.525,6.975 L113.25,6.975 L113.25,4.225 L122.375,4.225 L122.375,0.225 L108.05,0.225 Z M143,17.75 L139.45,12.025 C141.35,10.95 142.4,9.05 142.4,6.45 C142.4,2.475 139.7,0.225 135,0.225 L126.825,0.225 L126.825,17.75 L132.025,17.75 L132.025,13.025 L134.775,13.025 L137.1,17.75 L143,17.75 Z M132.025,4.225 L135,4.225 C136.55,4.225 137.45,5.075 137.45,6.6 C137.45,8.175 136.55,9.025 135,9.025 L132.025,9.025 L132.025,4.225 Z" id="INSERVER"></path>
        </g>
    </g>
</svg>

<svg height="18" viewBox="0 0 143 18" width="143" xmlns="http://www.w3.org/2000/svg"><path d="m0 .225v17.525h5.2v-17.525zm9.85000005 0v17.525h4.77499995v-9.75l7.425 9.75h4.425v-17.525h-4.75v9.8l-7.425-9.8zm33.87500005 5.8 1.925-4c-1.9-1.225-4.65-2.025-7.325-2.025-4.375 0-7.25 2.15-7.25 5.525 0 6.175 9.15 4.5 9.15 7.15 0 .8-.7 1.175-1.8 1.175-1.8 0-4.725-1.15-6.525-2.675l-1.95 3.95c2.2 1.725 5.45 2.775 8.425 2.775 3.925 0 7.225-1.775 7.225-5.5 0-6.325-9.15-4.8-9.15-7.375 0-.65.575-.95 1.45-.95 1.475 0 4.025.925 5.825 1.95zm5.475-5.8v17.525h14.575v-4h-9.375v-2.775h8.275v-4h-8.275v-2.75h9.125v-4zm34.9500001 17.525-3.55-5.725c1.9-1.075 2.95-2.975 2.95-5.575 0-3.975-2.7-6.225-7.4-6.225h-8.175v17.525h5.2v-4.725h2.75l2.325 4.725zm-10.975-13.525h2.975c1.55 0 2.45.85 2.45 2.375 0 1.575-.9 2.425-2.45 2.425h-2.975zm12.925-4 6.7 17.525h5.4l6.7749998-17.525h-5.3249998l-4 12.125-4-12.125zm21.9499998 0v17.525h14.575v-4h-9.375v-2.775h8.275v-4h-8.275v-2.75h9.125v-4zm34.95 17.525-3.55-5.725c1.9-1.075 2.95-2.975 2.95-5.575 0-3.975-2.7-6.225-7.4-6.225h-8.175v17.525h5.2v-4.725h2.75l2.325 4.725zm-10.975-13.525h2.975c1.55 0 2.45.85 2.45 2.375 0 1.575-.9 2.425-2.45 2.425h-2.975z" fill="#fff" fill-rule="evenodd"/></svg>
